X: 28
T:Bog Down in the Valley-oh, The
M:4/4
L:1/4
Q:120
R:March
K:G
"G"B G/2G/2 AG|B G/2G/2 AG|Bdd>c|BG"D"A2|
"G"B G/2G/2 AG|B G/2G/2 AG|Bd"D"d>c|"G"BGG2::!
"G"B2B>A|"C"GEE>E|"G"DGGA|"D"BAA2|
"G"B2B>A|"C"GEE>E|"D"Dddc|"G"BGG2:|
